;FLAVOR:Marlin
;TIME:2611
;Filament used: 1.29458m
;Layer height: 0.2
;MINX:96.18
;MINY:97.25
;MINZ:0.2
;MAXX:138.478
;MAXY:130.997
;MAXZ:29.6
;Generated with Cura_SteamEngine 4.6.2
M140 S60
M105
M190 S60
M104 S200
M105
M109 S200
M82 ;absolute extrusion mode
; Ender 3 Custom Start G-code
G92 E0 ; Reset Extruder
G28 ; Home all axes
G1 Z2.0 F3000 ; Move Z Axis up little to prevent scratching of Heat Bed
G1 X0.1 Y20 Z0.3 F5000.0 ; Move to start position
G1 X0.1 Y200.0 Z0.3 F1500.0 E15 ; Draw the first line
G1 X0.4 Y200.0 Z0.3 F5000.0 ; Move to side a little
G1 X0.4 Y20 Z0.3 F1500.0 E30 ; Draw the second line
G92 E0 ; Reset Extruder
G1 Z2.0 F3000 ; Move Z Axis up little to prevent scratching of Heat Bed
G1 X5 Y20 Z0.3 F5000.0 ; Move over to prevent blob squish
G92 E0
G92 E0
G1 F1500 E-6.5
;LAYER_COUNT:148
;LAYER:0
M107
G0 F6000 X119.79 Y98.711 Z0.2
;TYPE:SKIRT
G1 F1500 E0
G1 F1200 X120.046 Y98.77 E0.00874
G1 X120.477 Y98.879 E0.02352
G1 X121.351 Y99.121 E0.05369
G1 X122.21 Y99.4 E0.08373
G1 X123.04 Y99.754 E0.11374
G1 X123.837 Y100.181 E0.14381
G1 X124.592 Y100.676 E0.17384
G1 X125.301 Y101.235 E0.20387
G1 X125.957 Y101.856 E0.23391
G1 X126.556 Y102.532 E0.26395
G1 X127.093 Y103.258 E0.29399
G1 X127.563 Y104.029 E0.32402
G1 X127.963 Y104.839 E0.35407
G1 X128.29 Y105.68 E0.38408
G1 X128.542 Y106.548 E0.41414
G1 X128.716 Y107.434 E0.44417
G1 X128.81 Y108.332 E0.4742
G1 X128.825 Y109.235 E0.50424
G1 X128.76 Y110.136 E0.53429
G1 X128.615 Y111.027 E0.56431
G1 X128.393 Y111.903 E0.59437
G1 X128.093 Y112.755 E0.62441
G1 X127.72 Y113.577 E0.65443
G1 X127.275 Y114.363 E0.68448
G1 X126.496 Y115.443 E0.72877
G1 X125.743 Y116.349 E0.76795
G1 X125.176 Y116.996 E0.79656
G1 X124.551 Y117.648 E0.8266
G1 X123.871 Y118.242 E0.85663
G1 X123.142 Y118.774 E0.88665
G1 X122.368 Y119.239 E0.91668
G1 X121.555 Y119.634 E0.94674
G1 X120.712 Y119.956 E0.97676
G1 X119.842 Y120.202 E1.00683
G1 X118.955 Y120.369 E1.03685
G1 X118.056 Y120.458 E1.0669
G1 X117.153 Y120.467 E1.09693
G1 X116.253 Y120.396 E1.12696
G1 X115.363 Y120.245 E1.15698
G1 X114.489 Y120.017 E1.18703
G1 X113.639 Y119.712 E1.21706
G1 X112.819 Y119.333 E1.24711
G1 X112.036 Y118.883 E1.27714
G1 X111.296 Y118.365 E1.30719
G1 X110.604 Y117.784 E1.33724
G1 X109.926 Y117.1 E1.36927
G1 X109.285 Y116.382 E1.40129
G1 X108.957 Y115.997 E1.41811
G1 X108.541 Y115.499 E1.43969
G1 X107.993 Y114.781 E1.46973
G1 X107.511 Y114.017 E1.49978
G1 X107.098 Y113.214 E1.52981
G1 X106.759 Y112.377 E1.55985
G1 X106.494 Y111.514 E1.58987
G1 X106.307 Y110.63 E1.61992
G1 X106.198 Y109.734 E1.64994
G1 X106.17 Y108.831 E1.67999
G1 X106.221 Y107.93 E1.71001
G1 X106.352 Y107.036 E1.74006
G1 X106.562 Y106.158 E1.77009
G1 X106.848 Y105.301 E1.80014
G1 X107.209 Y104.473 E1.83018
G1 X107.642 Y103.681 E1.8602
G1 X108.143 Y102.929 E1.89025
G1 X108.709 Y102.225 E1.9203
G1 X109.334 Y101.574 E1.95032
G1 X110.015 Y100.981 E1.98035
G1 X110.746 Y100.45 E2.0104
G1 X111.521 Y99.986 E2.04044
G1 X112.333 Y99.592 E2.07046
G1 X113.539 Y99.16 E2.11307
G1 X114.19 Y98.972 E2.13561
G1 X114.502 Y98.888 E2.14635
G1 X114.981 Y98.766 E2.16279
G1 X115.866 Y98.582 E2.19286
G1 X116.763 Y98.477 E2.2229
G1 X117.665 Y98.451 E2.25291
G1 X118.567 Y98.506 E2.28297
G1 X119.79 Y98.711 E2.32421
G0 F6000 X119.88 Y98.321
G1 F1200 X120.136 Y98.38 E2.33295
G1 X120.584 Y98.493 E2.34832
G1 X121.458 Y98.735 E2.37848
G1 X122.333 Y99.019 E2.40908
G1 X123.181 Y99.378 E2.4397
G1 X123.995 Y99.809 E2.47034
G1 X124.768 Y100.309 E2.50096
G1 X125.494 Y100.875 E2.53158
G1 X126.169 Y101.501 E2.56219
G1 X126.787 Y102.183 E2.59281
G1 X127.344 Y102.917 E2.62345
G1 X127.834 Y103.696 E2.65406
G1 X128.256 Y104.514 E2.68468
G1 X128.604 Y105.366 E2.71529
G1 X128.878 Y106.245 E2.74591
G1 X129.074 Y107.145 E2.77654
G1 X129.191 Y108.058 E2.80716
G1 X129.229 Y108.978 E2.83778
G1 X129.187 Y109.898 E2.86842
G1 X129.065 Y110.81 E2.89902
G1 X128.864 Y111.709 E2.92966
G1 X128.586 Y112.586 E2.96026
G1 X128.233 Y113.437 E2.9909
G1 X127.808 Y114.253 E3.0215
G1 X127.313 Y115.03 E3.05214
G1 X126.805 Y115.698 E3.08006
G1 X126.248 Y116.373 E3.10916
G1 X126.044 Y116.612 E3.11961
G1 X125.477 Y117.259 E3.14823
G1 X124.841 Y117.925 E3.17886
G1 X124.149 Y118.532 E3.20947
G1 X123.407 Y119.078 E3.24011
G1 X122.621 Y119.557 E3.27073
G1 X121.796 Y119.966 E3.30135
G1 X120.939 Y120.301 E3.33196
G1 X120.056 Y120.561 E3.36257
G1 X119.153 Y120.744 E3.39322
G1 X118.239 Y120.848 E3.42381
G1 X117.318 Y120.871 E3.45446
G1 X116.399 Y120.815 E3.48508
G1 X115.489 Y120.679 E3.51568
G1 X114.593 Y120.465 E3.54632
G1 X113.72 Y120.174 E3.57693
G1 X112.875 Y119.808 E3.60756
G1 X112.065 Y119.371 E3.63817
G1 X111.296 Y118.864 E3.6688
G1 X110.574 Y118.293 E3.69942
G1 X109.629 Y117.367 E3.74342
G1 X108.981 Y116.642 E3.77577
G1 X108.65 Y116.254 E3.79273
G1 X108.234 Y115.756 E3.81431
G1 X107.675 Y115.024 E3.84494
G1 X107.182 Y114.247 E3.87555
G1 X106.757 Y113.43 E3.90618
G1 X106.406 Y112.579 E3.9368
G1 X106.129 Y111.701 E3.96742
G1 X105.93 Y110.802 E3.99804
G1 X105.81 Y109.889 E4.02867
G1 X105.769 Y108.969 E4.0593
G1 X105.808 Y108.049 E4.08993
G1 X105.927 Y107.136 E4.12055
G1 X106.125 Y106.237 E4.15117
G1 X106.4 Y105.359 E4.18177
G1 X106.75 Y104.507 E4.21241
G1 X107.172 Y103.689 E4.24302
G1 X107.664 Y102.911 E4.27364
G1 X108.222 Y102.179 E4.30425
G1 X108.841 Y101.497 E4.33488
G1 X109.517 Y100.872 E4.3655
G1 X110.245 Y100.308 E4.39613
G1 X111.019 Y99.809 E4.42676
G1 X111.833 Y99.38 E4.45737
G1 X112.681 Y99.022 E4.48798
G1 X113.428 Y98.776 E4.51414
G1 X114.079 Y98.588 E4.53668
G1 X114.404 Y98.5 E4.54788
G1 X114.883 Y98.378 E4.56432
G1 X115.784 Y98.19 E4.59493
G1 X116.698 Y98.08 E4.62555
G1 X117.618 Y98.051 E4.65616
G1 X118.538 Y98.101 E4.68681
G1 X119.88 Y98.321 E4.73204
G0 F6000 X119.436 Y97.822
G1 F1200 X119.969 Y97.931 E4.75013
G1 X120.225 Y97.99 E4.75887
G1 X120.69 Y98.108 E4.77483
G1 X121.564 Y98.35 E4.80499
G1 X122.457 Y98.638 E4.8362
G1 X123.321 Y99.002 E4.86738
G1 X124.152 Y99.438 E4.89859
G1 X124.942 Y99.943 E4.92978
G1 X125.686 Y100.513 E4.96095
G1 X126.379 Y101.145 E4.99215
G1 X127.016 Y101.834 E5.02336
G1 X127.592 Y102.574 E5.05455
G1 X128.103 Y103.361 E5.08576
G1 X128.544 Y104.188 E5.11693
G1 X128.914 Y105.05 E5.14813
G1 X129.209 Y105.94 E5.17931
G1 X129.427 Y106.853 E5.21053
G1 X129.566 Y107.78 E5.24171
G1 X129.626 Y108.716 E5.27291
G1 X129.607 Y109.654 E5.30411
G1 X129.507 Y110.586 E5.33529
G1 X129.328 Y111.507 E5.36649
G1 X129.071 Y112.409 E5.39769
G1 X128.739 Y113.286 E5.42888
G1 X128.333 Y114.131 E5.46006
G1 X127.856 Y114.939 E5.49126
G1 X127.113 Y115.952 E5.53305
G1 X126.345 Y116.876 E5.57301
G1 X125.778 Y117.523 E5.60162
G1 X125.13 Y118.201 E5.63282
G1 X124.427 Y118.822 E5.66401
G1 X123.674 Y119.381 E5.69521
G1 X122.875 Y119.873 E5.72642
G1 X122.038 Y120.295 E5.75759
G1 X121.168 Y120.645 E5.78878
G1 X120.271 Y120.92 E5.81999
G1 X119.354 Y121.116 E5.85118
G1 X118.424 Y121.235 E5.88236
G1 X117.487 Y121.273 E5.91355
G1 X116.55 Y121.231 E5.94475
G1 X115.62 Y121.11 E5.97594
G1 X114.703 Y120.91 E6.00716
G1 X113.807 Y120.633 E6.03835
G1 X112.938 Y120.28 E6.06954
G1 X112.103 Y119.855 E6.10071
G1 X111.306 Y119.36 E6.13191
G1 X110.554 Y118.799 E6.16312
G1 X109.853 Y118.176 E6.19431
G1 X109.332 Y117.635 E6.21929
G1 X108.676 Y116.902 E6.25201
G1 X108.343 Y116.51 E6.26912
G1 X107.927 Y116.012 E6.2907
G1 X107.357 Y115.267 E6.3219
G1 X106.852 Y114.477 E6.35308
G1 X106.417 Y113.646 E6.38428
G1 X106.054 Y112.781 E6.41548
G1 X105.766 Y111.889 E6.44666
G1 X105.555 Y110.975 E6.47786
G1 X105.423 Y110.046 E6.50906
G1 X105.37 Y109.11 E6.54025
G1 X105.397 Y108.172 E6.57146
G1 X105.504 Y107.241 E6.60263
G1 X105.69 Y106.321 E6.63384
G1 X105.954 Y105.421 E6.66504
G1 X106.293 Y104.547 E6.69622
G1 X106.706 Y103.705 E6.72741
G1 X107.188 Y102.901 E6.75859
G1 X107.738 Y102.141 E6.78979
G1 X108.35 Y101.43 E6.82099
G1 X109.021 Y100.775 E6.85218
G1 X109.745 Y100.178 E6.88339
G1 X110.517 Y99.646 E6.91458
G1 X111.331 Y99.181 E6.94576
G1 X112.183 Y98.788 E6.97696
G1 X113.317 Y98.392 E7.01691
G1 X113.968 Y98.204 E7.03945
G1 X114.305 Y98.112 E7.05107
G1 X114.784 Y97.99 E7.06751
G1 X115.702 Y97.798 E7.0987
G1 X116.633 Y97.684 E7.1299
G1 X117.57 Y97.65 E7.16109
G1 X118.507 Y97.696 E7.19229
G1 X119.436 Y97.822 E7.22347
G0 F6000 X119.422 Y97.413
G1 F1200 X120.059 Y97.541 E7.24508
G1 X120.315 Y97.6 E7.25382
G1 X120.797 Y97.722 E7.27035
G1 X121.671 Y97.964 E7.30052
G1 X122.58 Y98.257 E7.33228
G1 X123.461 Y98.626 E7.36405
G1 X124.308 Y99.066 E7.3958
G1 X125.115 Y99.576 E7.42755
G1 X125.877 Y100.152 E7.45932
G1 X126.588 Y100.789 E7.49107
G1 X127.243 Y101.484 E7.52283
G1 X127.837 Y102.231 E7.55458
G1 X128.367 Y103.025 E7.58633
G1 X128.829 Y103.86 E7.61807
G1 X129.219 Y104.732 E7.64984
G1 X129.535 Y105.633 E7.6816
G1 X129.775 Y106.557 E7.71335
G1 X129.936 Y107.498 E7.7451
G1 X130.018 Y108.449 E7.77685
G1 X130.02 Y109.404 E7.80861
G1 X129.942 Y110.356 E7.84038
G1 X129.785 Y111.297 E7.87211
G1 X129.549 Y112.223 E7.9039
G1 X129.237 Y113.125 E7.93564
G1 X128.851 Y113.998 E7.96739
G1 X128.393 Y114.836 E7.99915
G1 X127.866 Y115.632 E8.0309
G1 X127.422 Y116.207 E8.05506
G1 X126.646 Y117.14 E8.09543
G1 X126.079 Y117.787 E8.12404
G1 X125.42 Y118.478 E8.1558
G1 X124.706 Y119.111 E8.18754
G1 X123.941 Y119.683 E8.21931
G1 X123.131 Y120.188 E8.25105
G1 X122.281 Y120.624 E8.28283
G1 X121.398 Y120.988 E8.31459
G1 X120.488 Y121.276 E8.34634
G1 X119.557 Y121.487 E8.37809
G1 X118.611 Y121.619 E8.40986
G1 X117.658 Y121.672 E8.44161
G1 X116.704 Y121.645 E8.47335
G1 X115.755 Y121.538 E8.50511
G1 X114.818 Y121.352 E8.53688
G1 X113.901 Y121.088 E8.56862
G1 X113.008 Y120.749 E8.60039
G1 X112.148 Y120.336 E8.63212
G1 X111.324 Y119.852 E8.66391
G1 X110.544 Y119.301 E8.69567
G1 X109.813 Y118.687 E8.72742
G1 X109.035 Y117.903 E8.76416
G1 X108.372 Y117.161 E8.79725
G1 X108.036 Y116.766 E8.8145
G1 X107.62 Y116.268 E8.83608
G1 X107.039 Y115.511 E8.86782
G1 X106.524 Y114.707 E8.89958
G1 X106.077 Y113.863 E8.93135
G1 X105.703 Y112.985 E8.96309
G1 X105.404 Y112.078 E8.99485
G1 X105.181 Y111.149 E9.02663
G1 X105.037 Y110.206 E9.05836
G1 X104.973 Y109.253 E9.09012
G1 X104.988 Y108.298 E9.12189
G1 X105.083 Y107.348 E9.15365
G1 X105.258 Y106.41 E9.18538
G1 X105.51 Y105.489 E9.21714
G1 X105.839 Y104.592 E9.24892
G1 X106.241 Y103.727 E9.28064
G1 X106.715 Y102.897 E9.31243
G1 X107.256 Y102.111 E9.34417
G1 X107.861 Y101.372 E9.37594
G1 X108.526 Y100.687 E9.40769
G1 X109.246 Y100.06 E9.43944
G1 X110.015 Y99.495 E9.47118
G1 X110.83 Y98.996 E9.50297
G1 X111.683 Y98.568 E9.53471
G1 X112.569 Y98.212 E9.56647
G1 X113.206 Y98.008 E9.58871
G1 X113.857 Y97.82 E9.61125
G1 X114.206 Y97.725 E9.62328
G1 X114.685 Y97.603 E9.63972
G1 X115.62 Y97.406 E9.6715
G1 X116.567 Y97.288 E9.70324
G1 X117.521 Y97.25 E9.735
G1 X118.475 Y97.292 E9.76676
G1 X119.422 Y97.413 E9.79851
G1 F1500 E3.29851
;MESH:suzanne.stl
G0 F6000 X117.781 Y108.027
G0 X117.5 Y109.073
G0 X117.423 Y109.281
;TYPE:WALL-INNER
G1 F1500 E9.79851
G1 F1200 X117.471 Y109.268 E9.80017
G1 X117.5 Y109.26 E9.80117
G1 X117.528 Y109.267 E9.80213
G1 X117.577 Y109.281 E9.80382
G1 X117.555 Y109.306
G1 X117.512 Y109.357 E9.80464
G1 X117.5 Y109.371
G1 X117.488 Y109.357
G1 X117.446 Y109.307 E9.80544
G1 X117.423 Y109.281 E9.80544
G0 F6000 X116.707 Y109.06
;TYPE:WALL-OUTER
G1 F1200 X117.5 Y108.846 E9.83276
G1 X118.293 Y109.06 E9.86008
G1 X117.5 Y109.986 E9.90063
G1 X116.707 Y109.06 E9.94117
G0 F6000 X117.495 Y109.469
;MESH:NONMESH
G0 F300 X117.495 Y109.469 Z0.4
G0 F6000 X117.16 Y109.199
G0 X115.771 Y109.406
;TIME_ELAPSED:20.885178
;LAYER:1
M140 S60
M106 S85
;TYPE:WALL-INNER
;MESH:suzanne.stl
G1 F600 X116.176 Y109.297 E9.95512
G1 X117.5 Y108.939 E10.00074
G1 X118.826 Y109.297 E10.04642
G1 X119.23 Y109.406 E10.06034
G1 X118.89 Y109.65 E10.06797
G1 X118.284 Y110.086 E10.0928
G1 X117.523 Y110.033 E10.11817
G1 X117.5 Y110.042 E10.11899
G1 X117.477 Y110.033 E10.11981
G1 X116.717 Y110.085 E10.14515
G1 X116.112 Y109.651 E10.16991
G1 X115.771 Y109.406 E10.17756
G0 F7500 X114.824 Y109.244
;TYPE:WALL-OUTER
G1 F600 X114.889 Y109.212 E10.17997
G1 X115.342 Y109.108 E10.19543
G1 X117.5 Y108.525 E10.26978
G1 X119.656 Y109.107 E10.34406
G1 X120.111 Y109.212 E10.35959
G1 X120.175 Y109.244 E10.36197
G1 X120.056 Y109.306 E10.36643
G1 X118.4 Y110.495 E10.43424
G1 X117.586 Y110.438 E10.46138
G1 X117.5 Y110.472 E10.46445
G1 X117.414 Y110.438 E10.46753
G1 X116.601 Y110.494 E10.49463
G1 X114.945 Y109.307 E10.5624
G1 X114.824 Y109.244 E10.56694
G0 F7500 X115.406 Y109.34
G0 X116.593 Y109.299
G0 X116.665 Y109.568
;TYPE:SKIN
G1 F600 X117.501 Y109.342 E10.59574
G1 X118.337 Y109.568 E10.62454
G1 X118.173 Y109.686 E10.63126
G1 X117.546 Y109.643 E10.65217
G1 X117.527 Y109.636 E10.65284
G1 X117.5 Y109.639 E10.65374
G1 X117.473 Y109.636 E10.65465
G1 X117.454 Y109.643 E10.65532
G1 X116.828 Y109.685 E10.67619
G1 X116.665 Y109.568 E10.68286
G0 F7500 X116.5 Y109.491
;TYPE:SKIN
G1 F600 X116.358 Y109.632 E10.68619
G0 F7500 X116.193 Y109.514
G1 F600 X116.273 Y109.435 E10.68806
G0 F7500 X116.261 Y109.388
G0 X117.5 Y109.117
G0 X118.535 Y109.334
G0 X118.496 Y109.474
G1 F600 X118.576 Y109.394 E10.68994
G0 F7500 X118.798 Y109.455
G1 F600 X118.574 Y109.68 E10.69522
G0 F7500 X119.395 Y109.424
G1 F600 X119.557 Y109.262 E10.69903
G0 F7500 X119.524 Y109.381
G0 X117.5 Y109.117
G0 X115.672 Y109.329
G0 X115.642 Y109.217
G1 F600 X115.424 Y109.435 E10.70416
G0 F7500 X115.808 Y109.603
;MESH:NONMESH
G0 F300 X115.808 Y109.603 Z0.6
G0 F7500 X115.83 Y109.573
G0 X117.5 Y109.117
G0 X119.594 Y109.34
G0 X120.56 Y109.52
;TIME_ELAPSED:24.339417
;LAYER:2
M106 S170
;TYPE:WALL-INNER
;MESH:suzanne.stl
G1 F600 X120.214 Y109.701 E10.71714
G1 X119.712 Y109.963 E10.73598
G1 X119.335 Y110.236 E10.75146
G1 X117.653 Y110.119 E10.80754
G1 X117.5 Y110.178 E10.81299
G1 X117.347 Y110.119 E10.81845
G1 X115.667 Y110.235 E10.87446
G1 X115.288 Y109.964 E10.88995
G1 X114.786 Y109.701 E10.9088
G1 X114.439 Y109.52 E10.92182
G1 X114.79 Y109.347 E10.92903
G1 X115.102 Y109.192 E10.94061
G1 X116.972 Y108.763 E11.00443
G1 X117.5 Y108.619 E11.02263
G1 X118.027 Y108.762 E11.04079
G1 X119.899 Y109.192 E11.10467
G1 X120.21 Y109.346 E11.11622
G1 X120.56 Y109.52 E11.12342
G0 F9000 X121.441 Y109.51
;TYPE:WALL-OUTER
G1 F600 X119.923 Y110.304 E11.1804
G1 X119.451 Y110.645 E11.19976
G1 X117.715 Y110.524 E11.25764
G1 X117.5 Y110.608 E11.26532
G1 X117.285 Y110.524 E11.273
G1 X115.551 Y110.644 E11.33081
G1 X115.078 Y110.305 E11.35016
G1 X113.559 Y109.51 E11.40719
G1 X114.969 Y108.812 E11.45952
G1 X116.875 Y108.375 E11.52455
G1 X117.5 Y108.205 E11.5461
G1 X118.124 Y108.374 E11.5676
G1 X120.031 Y108.812 E11.63268
G1 X121.441 Y109.51 E11.68501
G0 F9000 X120.9 Y109.516
G0 X119.739 Y109.269
G0 X119.676 Y109.541
;TYPE:SKIN
G1 F600 X119.506 Y109.63 E11.69139
G1 X119.221 Y109.836 E11.70308
G1 X117.594 Y109.724 E11.75733
G1 X117.5 Y109.76 E11.76067
G1 X117.407 Y109.724 E11.76399
G1 X115.778 Y109.835 E11.8183
G1 X115.493 Y109.631 E11.82995
G1 X115.322 Y109.542 E11.83637
G1 X117.067 Y109.141 E11.89592
G1 X117.501 Y109.023 E11.91088
G1 X117.932 Y109.14 E11.92573
G1 X119.676 Y109.541 E11.98525
G0 F9000 X118.689 Y109.639
G1 F600 X118.481 Y109.43 E11.99506
G0 F9000 X118.082 Y109.597
G1 F600 X117.738 Y109.253 E12.01124
G0 F9000 X117.505 Y109.585
G1 F600 X117.192 Y109.272 E12.02596
G0 F9000 X116.948 Y109.594
G1 F600 X116.735 Y109.381 E12.03598
G0 F9000 X116.418 Y109.63
G1 F600 X116.275 Y109.486 E12.04273
G0 F9000 X115.888 Y109.665
G1 F600 X115.815 Y109.593 E12.04614
G0 F9000 X115.151 Y109.494
;TYPE:SKIN
G1 F600 X115.052 Y109.395 E12.04847
G0 F9000 X114.863 Y109.489
G1 F600 X115.013 Y109.639 E12.052
G0 F9000 X114.989 Y109.683
G0 X114.861 Y109.525
G0 X115.158 Y109.355
G0 X117.5 Y108.797
G0 X119.878 Y109.305
G0 X119.842 Y109.377
G1 F600 X120.063 Y109.598 E12.05719
G0 F9000 X120.717 Y109.404
G1 F600 X120.905 Y109.591 E12.0616
G0 F9000 X120.849 Y109.482
G0 X117.5 Y108.797
G0 X114.285 Y109.485
G0 X114.238 Y109.429
G1 F600 X114.076 Y109.55 E12.06671
G0 F9000 X114.558 Y109.684
;MESH:NONMESH
G0 F300 X114.558 Y109.684 Z0.8
G0 F9000 X115.496 Y109.986
G0 X117.493 Y110.288
G0 X117.502 Y110.315
;TIME_ELAPSED:30.025420
;LAYER:3
M106 S255
;TYPE:WALL-INNER
;MESH:suzanne.stl
